**kern	**silbe	**harmony	**chordsym	**phrase	**timestamp	**leadinstrument
*ICvox	*	*M4/4	*M4/4	*	*	*
*G:	*	*G:	*G:	*	*	*
*M4/4	*	*	*	*	*	*
*clefF4	*	*	*	*	*	*
r;	.	1r;	r	.	0	r
=1	=1	=1	=1	=1	=1	=1
*	*	*>A_intro	*>A_intro	*>A_intro	*>A_intro	*>A_intro
1r	.	1N	N	newline	0.488	r
=2	=2	=2	=2	=2	=2	=2
1r	.	1N	N	.	.	r
=3	=3	=3	=3	=3	=3	=3
*	*	*>B2_solo	*>B2_solo	*>B2_solo	*>B2_solo	*>B2_solo
1r	.	1GM	G:maj (G B D)	newline	6.335	synthesizer
=4	=4	=4	=4	=4	=4	=4
1r	.	1DM	D:maj (D F# A)	.	.	synthesizer
=5	=5	=5	=5	=5	=5	=5
1r	.	2Em	E:min (E G B)	.	.	synthesizer
.	.	2DM	D:maj6 (D F# A B)	.	.	synthesizer
=6	=6	=6	=6	=6	=6	=6
1r	.	2.CM	C:maj (C E G)	.	.	synthesizer
.	.	4DM	D:maj (D F# A)	.	.	synthesizer
=7	=7	=7	=7	=7	=7	=7
1r	.	1GM	G:maj (G B D)	newline	14.036	synthesizer
=8	=8	=8	=8	=8	=8	=8
1r	.	1DM	D:maj (D F# A)	.	.	synthesizer
=9	=9	=9	=9	=9	=9	=9
1r	.	2Em	E:min (E G B)	.	.	synthesizer
.	.	2DM	D:maj6 (D F# A B)	.	.	synthesizer
=10	=10	=10	=10	=10	=10	=10
1r	.	2.CM	C:maj (C E G)	.	.	synthesizer
.	.	4DM	D:maj (D F# A)	.	.	synthesizer
=11	=11	=11	=11	=11	=11	=11
1r	.	1GM	G:maj (G B D)	newline	21.719	synthesizer
=12	=12	=12	=12	=12	=12	=12
1r	.	1DM	D:maj (D F# A)	.	.	synthesizer
=13	=13	=13	=13	=13	=13	=13
1r	.	2Em	E:min (E G B)	.	.	synthesizer
.	.	2DM	D:maj6 (D F# A B)	.	.	synthesizer
=14	=14	=14	=14	=14	=14	=14
1r	.	2.CM	C:maj (C E G)	.	.	synthesizer
.	.	4DM	D:maj (D F# A)	.	.	synthesizer
=15	=15	=15	=15	=15	=15	=15
1r	.	2.CM	C:maj (C E G)	newline	29.431	synthesizer
.	.	4DM	D:maj (D F# A)	.	.	synthesizer
=16	=16	=16	=16	=16	=16	=16
1r	.	2.CM	C:maj (C E G)	.	.	synthesizer
.	.	4DM	D:maj (D F# A)	.	.	synthesizer
=17	=17	=17	=17	=17	=17	=17
*	*	*>B_verse	*>B_verse	*>B_verse	*>B_verse	*>B_verse
4r	.	1GM	G:maj (G B D)	newline	33.251	voice
16r	.	.	.	.	.	.
8B	May-	.	.	.	.	.
16c	-be	.	.	.	.	.
4[d	I	.	.	.	.	.
8d]	_	.	.	.	.	.
16c	did-	.	.	.	.	.
16B	-n't	.	.	.	.	.
=18	=18	=18	=18	=18	=18	=18
8.B	treat	1DM	D:maj (D F# A)	.	.	voice
16[A	you	.	.	.	.	.
4A]	...	.	.	.	.	.
2r	.	.	.	.	.	.
=19	=19	=19	=19	=19	=19	=19
4r	.	2Em	E:min (E G B)	.	.	voice
12r	.	.	.	.	.	.
12G	quite	.	.	.	.	.
12A	as	.	.	.	.	.
4[B	good	2DM	D:maj6 (D F# A B)	.	.	voice
12B]	_	.	.	.	.	.
12A	as	.	.	.	.	.
12G	I	.	.	.	.	.
=20	=20	=20	=20	=20	=20	=20
8F#	should	2.CM	C:maj (C E G)	.	.	voice
8[E	_	.	.	.	.	.
4E_	_	.	.	.	.	.
8E]	_	.	.	.	.	.
8r	.	.	.	.	.	.
4r	.	4DM	D:maj (D F# A)	.	.	voice
=21	=21	=21	=21	=21	=21	=21
4r	.	1GM	G:maj (G B D)	newline	40.961	voice
12r	.	.	.	.	.	.
12B	May-	.	.	.	.	.
12c	-be	.	.	.	.	.
4[d	I	.	.	.	.	.
12d]	_	.	.	.	.	.
12c	did-	.	.	.	.	.
12B	-n't	.	.	.	.	.
=22	=22	=22	=22	=22	=22	=22
8.B	love	1DM	D:maj (D F# A)	.	.	voice
16[A	you	.	.	.	.	.
4A_	_	.	.	.	.	.
4A]	...	.	.	.	.	.
4r	.	.	.	.	.	.
=23	=23	=23	=23	=23	=23	=23
4r	.	2Em	E:min (E G B)	.	.	voice
12r	.	.	.	.	.	.
12G	quite	.	.	.	.	.
12A	as	.	.	.	.	.
6B	of-	2DM	D:maj6 (D F# A B)	.	.	voice
6A	-ten	.	.	.	.	.
8G	as	.	.	.	.	.
24[F#	I	.	.	.	.	.
=24	=24	=24	=24	=24	=24	=24
8F#]	_	1AM	A:maj (A C# E)	.	.	voice
16G	could	.	.	.	.	.
16F#	_	.	.	.	.	.
4[E	_	.	.	.	.	.
4E]	_	.	.	.	.	.
4r	.	.	.	.	.	.
=25	=25	=25	=25	=25	=25	=25
*	*	*>C_chorus	*>C_chorus	*>C_chorus	*>C_chorus	*>C_chorus
4r	.	1CM	C:maj (C E G)	newline	48.62	voice
12r	.	.	.	.	.	.
12c	Lit-	.	.	.	.	.
12d	-tle	.	.	.	.	.
8.e	things	.	.	.	.	.
16[d	I	.	.	.	.	.
12d]	_	.	.	.	.	.
12c	should	.	.	.	.	.
12B	have	.	.	.	.	.
=26	=26	=26	=26	=26	=26	=26
8r	.	1GM	G:maj (G B D)	.	.	voice
8B	said	.	.	.	.	.
8G	and	.	.	.	.	.
8Aq	_	.	.	.	.	.
8[B	done,	.	.	.	.	.
4B]	_	.	.	.	.	.
4r	.	.	.	.	.	.
=27	=27	=27	=27	=27	=27	=27
4r	.	2CM	C:maj (C E G)	.	.	voice
16r	.	.	.	.	.	.
8.c	I	.	.	.	.	.
8c	ne-	2GM	G:maj (B G D)	.	.	voice
8B	-ver	.	.	.	.	.
8A	took	.	.	.	.	.
8G	the	.	.	.	.	.
=28	=28	=28	=28	=28	=28	=28
16B	time	2Am	A:min (A C E)	.	.	voice
16A	_	.	.	.	.	.
16G	_	.	.	.	.	.
16[A	_	.	.	.	.	.
2A]	_	.	.	.	.	.
.	.	2GM	G:maj (G B D)	.	.	voice
4r	.	.	.	.	.	.
=29	=29	=29	=29	=29	=29	=29
4r	.	1DM	D:maj (D F# A)	newline	56.374	voice
8A	You	.	.	.	.	.
8A	are	.	.	.	.	.
8B	al-	.	.	.	.	.
8B	-ways	.	.	.	.	.
8c	on	.	.	.	.	.
8c	my	.	.	.	.	.
=30	=30	=30	=30	=30	=30	=30
8cq	_	.	.	.	.	.
2.d	mind!	1GM	G:maj (G B D)	.	.	voice
4r	.	.	.	.	.	.
=31	=31	=31	=31	=31	=31	=31
4r	.	2CM	C:maj (C E G)	.	.	voice
8A	You	.	.	.	.	.
16A	are	.	.	.	.	.
16[c	al	.	.	.	.	.
8c]	_	2DM	D:maj (D F# A)	.	.	voice
8c	ways	.	.	.	.	.
8B	on	.	.	.	.	.
8[B	my	.	.	.	.	.
=32	=32	=32	=32	=32	=32	=32
8B]	_	2B-M	B-:maj (B- D F)	.	.	voice
8[G	mind	.	.	.	.	.
2G]	_	.	.	.	.	.
.	.	2CM	C:maj (C E G)	.	.	voice
4r	.	.	.	.	.	.
=33	=33	=33	=33	=33	=33	=33
*	*	*>B_verse	*>B_verse	*>B_verse	*>B_verse	*>B_verse
4r	.	1GM	G:maj (G B D)	newline	64.044	voice
16r	.	.	.	.	.	.
8B	May-	.	.	.	.	.
16c	-be	.	.	.	.	.
4[d	I	.	.	.	.	.
8d]	_	.	.	.	.	.
16c	did-	.	.	.	.	.
16B	-n't	.	.	.	.	.
=34	=34	=34	=34	=34	=34	=34
4B	hold	1DM	D:maj (D F# A)	.	.	voice
2A	you...	.	.	.	.	.
4r	.	.	.	.	.	.
=35	=35	=35	=35	=35	=35	=35
4r	.	2Em	E:min (E G B)	.	.	voice
8G	all	.	.	.	.	.
8A	those	.	.	.	.	.
8B	lone-	2DM	D:maj6 (D F# A B)	.	.	voice
8A	-ly,	.	.	.	.	.
8.G	lone-	.	.	.	.	.
16[F#	-ly	.	.	.	.	.
=36	=36	=36	=36	=36	=36	=36
8F#]	_	2.CM	C:maj (C E G)	.	.	voice
16G	times	.	.	.	.	.
16F#	_	.	.	.	.	.
2E	_	.	.	.	.	.
4r	.	4DM	D:maj (D F# A)	.	.	voice
=37	=37	=37	=37	=37	=37	=37
4r	.	1GM	G:maj (G B D)	newline	71.706	voice
12r	.	.	.	.	.	.
12B	And	.	.	.	.	.
12c	I	.	.	.	.	.
4d	guess	.	.	.	.	.
12c	I	.	.	.	.	.
12B	ne-	.	.	.	.	.
12[B	-ver	.	.	.	.	.
=38	=38	=38	=38	=38	=38	=38
8B]	_	1DM	D:maj (D F# A)	.	.	voice
8B	told	.	.	.	.	.
8A	_	.	.	.	.	.
8[A	you	.	.	.	.	.
4A]	...	.	.	.	.	.
4r	.	.	.	.	.	.
=39	=39	=39	=39	=39	=39	=39
8r	.	2Em	E:min (E G B)	.	.	voice
8[G	I'm	.	.	.	.	.
8G]	_	.	.	.	.	.
8A	so	.	.	.	.	.
8B	hap-	2DM	D:maj6 (D F# A B)	.	.	voice
8A	-py	.	.	.	.	.
8G	that	.	.	.	.	.
8F#	you're	.	.	.	.	.
=40	=40	=40	=40	=40	=40	=40
16G	mine	1AM	A:maj (A C# E)	.	.	voice
16F#	_	.	.	.	.	.
8[E	_	.	.	.	.	.
2E]	_	.	.	.	.	.
4r	.	.	.	.	.	.
=41	=41	=41	=41	=41	=41	=41
*	*	*>C_chorus	*>C_chorus	*>C_chorus	*>C_chorus	*>C_chorus
4r	.	1CM	C:maj (C E G)	newline	79.392	voice
12r	.	.	.	.	.	.
12c	If	.	.	.	.	.
12d	I	.	.	.	.	.
6e	made	.	.	.	.	.
6d	you	.	.	.	.	.
8c	feel	.	.	.	.	.
24[B	_	.	.	.	.	.
=42	=42	=42	=42	=42	=42	=42
8B]	_	1GM	G:maj (G B D)	.	.	voice
8B	se-	.	.	.	.	.
8G	-cond	.	.	.	.	.
8Aq	_	.	.	.	.	.
8[B	best,	.	.	.	.	.
4.B]	_	.	.	.	.	.
8r	.	.	.	.	.	.
=43	=43	=43	=43	=43	=43	=43
8r	.	2CM	C:maj (C E G)	.	.	voice
8[A	I'm	.	.	.	.	.
16A]	_	.	.	.	.	.
8.B	so	.	.	.	.	.
8c	sor-	2GM	G:maj (B G D)	.	.	voice
8B	-ry	.	.	.	.	.
8A	I	.	.	.	.	.
8[G	was	.	.	.	.	.
=44	=44	=44	=44	=44	=44	=44
8G]	_	2Am	A:min (A C E)	.	.	voice
24B	blind	.	.	.	.	.
24A	_	.	.	.	.	.
24G	_	.	.	.	.	.
2A	_	.	.	.	.	.
.	.	2GM	G:maj (G B D)	.	.	voice
4r	.	.	.	.	.	.
=45	=45	=45	=45	=45	=45	=45
4r	.	1DM	D:maj (D F# A)	newline	87.093	voice
8A	You	.	.	.	.	.
8A	are	.	.	.	.	.
8B	al-	.	.	.	.	.
8B	-ways	.	.	.	.	.
8c	on	.	.	.	.	.
8[c	my	.	.	.	.	.
=46	=46	=46	=46	=46	=46	=46
8c]	_	1GM	G:maj (G B D)	.	.	voice
8[d	mind!	.	.	.	.	.
4d]	_	.	.	.	.	.
2r	.	.	.	.	.	.
=47	=47	=47	=47	=47	=47	=47
4r	.	2CM	C:maj (C E G)	.	.	voice
8A	You	.	.	.	.	.
16A	are	.	.	.	.	.
16[c	al-	.	.	.	.	.
8c]	_	2DM	D:maj (D F# A)	.	.	voice
8c	-ways	.	.	.	.	.
8B	on	.	.	.	.	.
8[B	my	.	.	.	.	.
=48	=48	=48	=48	=48	=48	=48
8B]	_	2B-M	B-:maj (B- D F)	.	.	voice
8[G	mind	.	.	.	.	.
2G]	_	.	.	.	.	.
.	.	2CM	C:maj (C E G)	.	.	voice
4r	.	.	.	.	.	.
=49	=49	=49	=49	=49	=49	=49
*	*	*>D_bridge	*>D_bridge	*>D_bridge	*>D_bridge	*>D_bridge
8cq	_	.	.	.	.	.
2.d	Tell	2GM	G:maj (G B D)	newline	94.815	voice
.	.	2DM	D:maj (F# D A)	.	.	voice
4e	_	.	.	.	.	.
=50	=50	=50	=50	=50	=50	=50
2G	me...	2Em	E:min (E G B)	.	.	voice
2r	.	2DM	D:maj (D F# A)	.	.	voice
=51	=51	=51	=51	=51	=51	=51
8c	tell	2CM	C:maj (C E G)	.	.	voice
8B	me	.	.	.	.	.
8A	that	.	.	.	.	.
8G	your	.	.	.	.	.
6c	sweet	2GM	G:maj (B G D)	.	.	voice
6B	love	.	.	.	.	.
12A	has-	.	.	.	.	.
12[G	-n't	.	.	.	.	.
=52	=52	=52	=52	=52	=52	=52
8G]	_	2Am	A:min (A C E)	.	.	voice
8[A	_	.	.	.	.	.
2A]	died.	.	.	.	.	.
.	.	2DM	D:maj (D F# A)	.	.	voice
4r	.	.	.	.	.	.
=53	=53	=53	=53	=53	=53	=53
2.d	Give	2GM	G:maj (G B D)	newline	102.464	voice
.	.	2DM	D:maj (F# D A)	.	.	voice
4e	_	.	.	.	.	.
=54	=54	=54	=54	=54	=54	=54
2[G	me	2Em	E:min (E G B)	.	.	voice
8G]	...	2DM	D:maj (D F# A)	.	.	voice
8r	.	.	.	.	.	.
4r	.	.	.	.	.	.
=55	=55	=55	=55	=55	=55	=55
8c	one	2CM	C:maj (C E G)	.	.	voice
8B	more	.	.	.	.	.
8A	chance	.	.	.	.	.
8G	to	.	.	.	.	.
8c	keep	2GM	G:maj (B G D)	.	.	voice
8[B	you	.	.	.	.	.
8B]	_	.	.	.	.	.
16A	sa-	.	.	.	.	.
16[G	-tis	.	.	.	.	.
=56	=56	=56	=56	=56	=56	=56
8G]	_	2Am	A:min (A C E)	.	.	voice
8[A	fied,	.	.	.	.	.
2A]	_	.	.	.	.	.
.	.	2DM	D:maj (D F# A)	.	.	voice
8r	.	.	.	.	.	.
8[B	sa	.	.	.	.	.
=57	=57	=57	=57	=57	=57	=57
*	*	*>B_solo	*>B_solo	*>B_solo	*>B_solo	*>B_solo
8B]	_	1GM	G:maj (G B D)	newline	110.159	synthesizer
8G	tis-	.	.	.	.	.
2[G	-fied	.	.	.	.	.
8G]	_	.	.	.	.	.
8r	.	.	.	.	.	.
=58	=58	=58	=58	=58	=58	=58
1r	.	1DM	D:maj (D F# A)	.	.	synthesizer
=59	=59	=59	=59	=59	=59	=59
1r	.	2Em	E:min (E G B)	.	.	synthesizer
.	.	2DM	D:maj6 (D F# A B)	.	.	synthesizer
=60	=60	=60	=60	=60	=60	=60
1r	.	2.CM	C:maj (C E G)	.	.	synthesizer
.	.	4DM	D:maj (D F# A)	.	.	synthesizer
=61	=61	=61	=61	=61	=61	=61
1r	.	1GM	G:maj (G B D)	newline	117.808	synthesizer
=62	=62	=62	=62	=62	=62	=62
1r	.	1DM	D:maj (D F# A)	.	.	synthesizer
=63	=63	=63	=63	=63	=63	=63
1r	.	2Em	E:min (E G B)	.	.	synthesizer
.	.	2DM	D:maj6 (D F# A B)	.	.	synthesizer
=64	=64	=64	=64	=64	=64	=64
1r	.	2.CM	C:maj (C E G)	.	.	synthesizer
.	.	4DM	D:maj (D F# A)	.	.	synthesizer
=65	=65	=65	=65	=65	=65	=65
*	*	*>C_chorus	*>C_chorus	*>C_chorus	*>C_chorus	*>C_chorus
4r	.	1CM	C:maj (C E G)	newline	125.525	voice
16r	.	.	.	.	.	.
16c	Lit-	.	.	.	.	.
8d	-tle	.	.	.	.	.
6e	things	.	.	.	.	.
6d	I	.	.	.	.	.
12c	should	.	.	.	.	.
12[B	have	.	.	.	.	.
=66	=66	=66	=66	=66	=66	=66
8B]	_	1GM	G:maj (G B D)	.	.	voice
8B	said	.	.	.	.	.
8G	and	.	.	.	.	.
8[B	done,	.	.	.	.	.
4B]	_	.	.	.	.	.
4r	.	.	.	.	.	.
=67	=67	=67	=67	=67	=67	=67
4r	.	2CM	C:maj (C E G)	.	.	voice
16r	.	.	.	.	.	.
8.c	I	.	.	.	.	.
8c	ne-	2GM	G:maj (B G D)	.	.	voice
8B	-ver	.	.	.	.	.
8A	took	.	.	.	.	.
8G	the	.	.	.	.	.
=68	=68	=68	=68	=68	=68	=68
16B	time	2Am	A:min (A C E)	.	.	voice
16A	_	.	.	.	.	.
16G	_	.	.	.	.	.
16[A	_	.	.	.	.	.
4A_	_	.	.	.	.	.
8A]	_	2GM	G:maj (G B D)	.	.	voice
8r	.	.	.	.	.	.
4r	.	.	.	.	.	.
=69	=69	=69	=69	=69	=69	=69
4r	.	1DM	D:maj (D F# A)	newline	133.202	voice
8A	You	.	.	.	.	.
8A	are	.	.	.	.	.
8B	al-	.	.	.	.	.
8B	-ways	.	.	.	.	.
8c	on	.	.	.	.	.
8c	my	.	.	.	.	.
=70	=70	=70	=70	=70	=70	=70
8cq	_	.	.	.	.	.
2.d	mind!	1GM	G:maj (G B D)	.	.	voice
4r	.	.	.	.	.	.
=71	=71	=71	=71	=71	=71	=71
4r	.	2CM	C:maj (C E G)	.	.	voice
8A	You	.	.	.	.	.
16A	are	.	.	.	.	.
16[c	al	.	.	.	.	.
6c]	_	2DM	D:maj (D F# A)	.	.	voice
6c	ways	.	.	.	.	.
8B	on	.	.	.	.	.
24[B	my	.	.	.	.	.
=72	=72	=72	=72	=72	=72	=72
8B]	_	2B-M	B-:maj (B- D F)	.	.	voice
8[G	mind	.	.	.	.	.
2G]	_	.	.	.	.	.
.	.	2CM	C:maj (C E G)	.	.	voice
4r	.	.	.	.	.	.
=73	=73	=73	=73	=73	=73	=73
*	*	*>D_bridge	*>D_bridge	*>D_bridge	*>D_bridge	*>D_bridge
8cq	_	.	.	.	.	.
2.d	Tell	2GM	G:maj (G B D)	newline	140.917	voice
.	.	2DM	D:maj (F# D A)	.	.	voice
4e	_	.	.	.	.	.
=74	=74	=74	=74	=74	=74	=74
2G	me...	2Em	E:min (E G B)	.	.	voice
2r	.	2DM	D:maj (D F# A)	.	.	voice
=75	=75	=75	=75	=75	=75	=75
8c	tell	2CM	C:maj (C E G)	.	.	voice
8B	me	.	.	.	.	.
8A	that	.	.	.	.	.
8G	your	.	.	.	.	.
6c	sweet	2GM	G:maj (B G D)	.	.	voice
6B	love	.	.	.	.	.
12A	has-	.	.	.	.	.
12[G	-n't	.	.	.	.	.
=76	=76	=76	=76	=76	=76	=76
8G]	_	2Am	A:min (A C E)	.	.	voice
8[A	died	.	.	.	.	.
2A]	_	.	.	.	.	.
.	.	2DM	D:maj (D F# A)	.	.	voice
4r	.	.	.	.	.	.
=77	=77	=77	=77	=77	=77	=77
2.d	Give	2GM	G:maj (G B D)	newline	148.547	voice
.	.	2DM	D:maj (F# D A)	.	.	voice
4e	_	.	.	.	.	.
=78	=78	=78	=78	=78	=78	=78
2[G	me	2Em	E:min (E G B)	.	.	voice
8G]	...	2DM	D:maj (D F# A)	.	.	voice
8r	.	.	.	.	.	.
4r	.	.	.	.	.	.
=79	=79	=79	=79	=79	=79	=79
8c	one	2CM	C:maj (C E G)	.	.	voice
8B	more	.	.	.	.	.
8A	chance	.	.	.	.	.
8G	to	.	.	.	.	.
8c	keep	2GM	G:maj (B G D)	.	.	voice
8[B	you	.	.	.	.	.
8B]	_	.	.	.	.	.
16A	sa-	.	.	.	.	.
16[G	-tis	.	.	.	.	.
=80	=80	=80	=80	=80	=80	=80
8G]	_	2Am	A:min (A C E)	.	.	voice
8[A	fied	.	.	.	.	.
2A]	_	.	.	.	.	.
.	.	2DM	D:maj (D F# A)	.	.	voice
4r	.	.	.	.	.	.
=81	=81	=81	=81	=81	=81	=81
*	*	*>C2_chorus	*>C2_chorus	*>C2_chorus	*>C2_chorus	*>C2_chorus
4r	.	1DM	D:maj (D F# A)	newline	156.324	voice
8A	You	.	.	.	.	.
8A	are	.	.	.	.	.
8B	al-	.	.	.	.	.
8B	-ways	.	.	.	.	.
8c	on	.	.	.	.	.
8[c	my	.	.	.	.	.
=82	=82	=82	=82	=82	=82	=82
8c]	_	1GM	G:maj (G B D)	.	.	voice
8[d	mind!	.	.	.	.	.
4d]	_	.	.	.	.	.
2r	.	.	.	.	.	.
=83	=83	=83	=83	=83	=83	=83
4r	.	2CM	C:maj (C E G)	.	.	voice
8A	You	.	.	.	.	.
16A	are	.	.	.	.	.
16[c	al-	.	.	.	.	.
8c]	_	2DM	D:maj (D F# A)	.	.	voice
8c	-ways	.	.	.	.	.
8B	on	.	.	.	.	.
8[B	my	.	.	.	.	.
=84	=84	=84	=84	=84	=84	=84
8B]	_	1GM	G:maj (G B D)	.	.	voice
8[G	mind	.	.	.	.	.
2G]	_	.	.	.	.	.
4r	.	.	.	.	.	.
=85	=85	=85	=85	=85	=85	=85
4r	.	1DM	D:maj (D F# A)	newline	163.941	voice
8A	You	.	.	.	.	.
8A	are	.	.	.	.	.
8B	al-	.	.	.	.	.
8B	-ways	.	.	.	.	.
8c	on	.	.	.	.	.
8[c	my	.	.	.	.	.
=86	=86	=86	=86	=86	=86	=86
8c]	_	1GM	G:maj (G B D)	.	.	voice
8[d	mind!	.	.	.	.	.
2d]	_	.	.	.	.	.
4r	.	.	.	.	.	.
=87	=87	=87	=87	=87	=87	=87
4r	.	2CM	C:maj (C E G)	.	.	voice
8A	You	.	.	.	.	.
16A	are	.	.	.	.	.
16[c	al	.	.	.	.	.
8c]	_	2DM	D:maj (D F# A)	.	.	voice
8c	ways	.	.	.	.	.
8B	on	.	.	.	.	.
8[B	my	.	.	.	.	.
=88	=88	=88	=88	=88	=88	=88
8B]	_	1GM	G:maj (G B D)	.	.	voice
8[G	mind.	.	.	.	.	.
2G]	_	.	.	.	.	.
4r	.	.	.	.	.	.
=89	=89	=89	=89	=89	=89	=89
4r	.	1DM	D:maj (D F# A)	newline	171.638	voice
8A	You	.	.	.	.	.
8A	are	.	.	.	.	.
8B	al-	.	.	.	.	.
8B	-ways	.	.	.	.	.
8c	on	.	.	.	.	.
8[c	my	.	.	.	.	.
=90	=90	=90	=90	=90	=90	=90
8c]	_	1GM	G:maj (G B D)	.	.	voice
8[d	mind!	.	.	.	.	.
2d]	_	.	.	.	.	.
4r	.	.	.	.	.	.
=91	=91	=91	=91	=91	=91	=91
4r	.	2CM	C:maj (C E G)	.	.	voice
8A	You	.	.	.	.	.
16A	are	.	.	.	.	.
16[c	al	.	.	.	.	.
8c]	_	2DM	D:maj (D F# A)	.	.	voice
8c	ways	.	.	.	.	.
8B	on	.	.	.	.	.
8[B	my	.	.	.	.	.
=92	=92	=92	=92	=92	=92	=92
8B]	_	2B-M	B-:maj (B- D F)	.	.	voice
8[G	mind	.	.	.	.	.
2G]	_	.	.	.	.	.
.	.	2CM	C:maj (C E G)	.	.	voice
4r	.	.	.	.	.	.
=93	=93	=93	=93	=93	=93	=93
*	*	*>B2_outro	*>B2_outro	*>B2_outro	*>B2_outro	*>B2_outro
1r	.	1GM	G:maj (G B D)	newline	179.371	synthesizer
=94	=94	=94	=94	=94	=94	=94
1r	.	1DM	D:maj (D F# A)	.	.	synthesizer
=95	=95	=95	=95	=95	=95	=95
1r	.	2Em	E:min (E G B)	.	.	synthesizer
.	.	2DM	D:maj6 (D F# A B)	.	.	synthesizer
=96	=96	=96	=96	=96	=96	=96
1r	.	2.CM	C:maj (C E G)	.	.	synthesizer
.	.	4DM	D:maj (D F# A)	.	.	synthesizer
=97	=97	=97	=97	=97	=97	=97
4r	.	1GM	G:maj (G B D)	newline	187.039	voice
16r	.	.	.	.	.	.
8B	May-	.	.	.	.	.
16c	-be	.	.	.	.	.
4[d	I	.	.	.	.	.
8d]	_	.	.	.	.	.
16c	did-	.	.	.	.	.
16B	-n't	.	.	.	.	.
=98	=98	=98	=98	=98	=98	=98
8.B	treat	1DM	D:maj (D F# A)	.	.	voice
16[A	you	.	.	.	.	.
4A]	...	.	.	.	.	.
2r	.	.	.	.	.	.
=99	=99	=99	=99	=99	=99	=99
4r	.	2Em	E:min (E G B)	.	.	voice
12r	.	.	.	.	.	.
12G	quite	.	.	.	.	.
12A	as	.	.	.	.	.
4[B	good	2DM	D:maj6 (D F# A B)	.	.	voice
12B]	_	.	.	.	.	.
12A	as	.	.	.	.	.
12[G	I	.	.	.	.	.
=100	=100	=100	=100	=100	=100	=100
8G]	_	2.CM	C:maj (C E G)	.	.	voice
8F#	should	.	.	.	.	.
2E	_	.	.	.	.	.
4r	.	4DM	D:maj (D F# A)	.	.	voice
=101	=101	=101	=101	=101	=101	=101
4r	.	1GM	G:maj (G B D)	newline	194.722	voice
12r	.	.	.	.	.	.
12B	May-	.	.	.	.	.
12c	-be	.	.	.	.	.
4[d	I	.	.	.	.	.
12d]	_	.	.	.	.	.
12c	didn-	.	.	.	.	.
12B	-n't	.	.	.	.	.
=102	=102	=102	=102	=102	=102	=102
8.B	love	1DM	D:maj (D F# A)	.	.	voice
16[A	you	.	.	.	.	.
4A_	_	.	.	.	.	.
4A]	...	.	.	.	.	.
4r	.	.	.	.	.	.
=103	=103	=103	=103	=103	=103	=103
8r	.	2Em	E:min (E G B)	.	.	voice
8G	quite	.	.	.	.	.
8A	as	.	.	.	.	.
8[B	of	.	.	.	.	.
8B]	_	2DM	D:maj6 (D F# A B)	.	.	voice
8A	ten	.	.	.	.	.
8.G	as	.	.	.	.	.
16[F#	I	.	.	.	.	.
=104	=104	=104	=104	=104	=104	=104
8F#]	_	2.CM	C:maj (C E G)	.	.	voice
16G	could	.	.	.	.	.
16F#	_	.	.	.	.	.
2E	_	.	.	.	.	.
4r	.	4DM	D:maj (D F# A)	.	.	voice
=105	=105	=105	=105	=105	=105	=105
4r	.	1GM	G:maj (G B D)	newline	202.407	voice
16r	.	.	.	.	.	.
8B	May-	.	.	.	.	.
16c	-be	.	.	.	.	.
4[d	I	.	.	.	.	.
8d]	_	.	.	.	.	.
16c	did-	.	.	.	.	.
16B	-n't	.	.	.	.	.
=106	=106	=106	=106	=106	=106	=106
4B	hold	1DM	D:maj (D F# A)	.	.	voice
2A	you...	.	.	.	.	.
4r	.	.	.	.	.	.
=107	=107	=107	=107	=107	=107	=107
8r	.	2Em	E:min (E G B)	.	.	voice
8G	all	.	.	.	.	.
8A	those	.	.	.	.	.
8[B	lone	.	.	.	.	.
8B]	_	2DM	D:maj6 (D F# A B)	.	.	voice
8A	ly,	.	.	.	.	.
8.G	lone-	.	.	.	.	.
16[F#	-ly	.	.	.	.	.
=108	=108	=108	=108	=108	=108	=108
8F#]	_	2.CM	C:maj (C E G)	.	.	voice
16G	times	.	.	.	.	.
16F#	_	.	.	.	.	.
2E	_	.	.	.	.	.
4r	.	4DM	D:maj (D F# A)	.	.	voice
=109	=109	=109	=109	=109	=109	=109
8r	.	1GM	G:maj (G B D)	newline	210.088	voice
8G	And	.	.	.	.	.
8d	I	.	.	.	.	.
8[d	guess	.	.	.	.	.
8d]	_	.	.	.	.	.
8c	I	.	.	.	.	.
8B	ne-	.	.	.	.	.
8B	-ver	.	.	.	.	.
=110	=110	=110	=110	=110	=110	=110
4B	told	1DM	D:maj (D F# A)	.	.	voice
2.A	you...	.	.	.	.	.
=111	=111	=111	=111	=111	=111	=111
6r	.	2Em	E:min (E G B)	.	.	voice
6G	I'm	.	.	.	.	.
6A	so	.	.	.	.	.
8B	hap-	2DM	D:maj6 (D F# A B)	.	.	voice
8A	-py	.	.	.	.	.
8G	that	.	.	.	.	.
8F#	you're	.	.	.	.	.
=112	=112	=112	=112	=112	=112	=112
16G	mine	2.CM	C:maj (C E G)	.	.	voice
16F#	_	.	.	.	.	.
8[E	_	.	.	.	.	.
2E]	_	.	.	.	.	.
4r	.	4DM	D:maj (D F# A)	.	.	voice
=113	=113	=113	=113	=113	=113	=113
*	*	*>_fadeout	*>_fadeout	*>_fadeout	*>_fadeout	*>_fadeout
1r	.	1GM	G:maj (G B D)	newline	217.768	synthesizer
=114	=114	=114	=114	=114	=114	=114
1r	.	1DM	D:maj (D F# A)	.	.	synthesizer
=115	=115	=115	=115	=115	=115	=115
1r	.	2Em	E:min (E G B)	.	.	synthesizer
.	.	2DM	D:maj6 (D F# A B)	.	.	synthesizer
=116	=116	=116	=116	=116	=116	=116
1r	.	2.CM	C:maj (C E G)	.	.	synthesizer
.	.	4DM	D:maj (D F# A)	.	.	synthesizer
=117	=117	=117	=117	=117	=117	=117
4r	.	1GM	G:maj (G B D)	newline	225.479	synthesizer
16r	.	.	.	.	.	.
8B	May-	.	.	.	.	.
16c	-be	.	.	.	.	.
2[d	I	.	.	.	.	.
=118	=118	=118	=118	=118	=118	=118
2d_	_	1DM	D:maj (D F# A)	.	.	synthesizer
8d]	_	.	.	.	.	.
8e	did-	.	.	.	.	.
4B	-n't	.	.	.	.	.
=119	=119	=119	=119	=119	=119	=119
8d	love	2Em	E:min (E G B)	.	.	synthesizer
8[d	you!	.	.	.	.	.
2.d]	_	.	.	.	.	.
.	.	2DM	D:maj6 (D F# A B)	.	.	synthesizer
=120	=120	=120	=120	=120	=120	=120
1r	.	2.CM	C:maj (C E G)	.	.	synthesizer
.	.	4DM	D:maj (D F# A)	.	.	synthesizer
r;	.	1r;	r	.	230.76	r
r;	.	1r;	r	.	235.18	r
*-	*-	*-	*-	*-	*-	*-
!!!BillboardChartDate: 1988/04/30
!!!BillboardPeak: 4
!!!BillboardWeeksOnChart: 14
!!!COC: Pet Shop Boys
!!!ENC: Nathaniel Condit-Schultz
!!!EST: Awating manual error checking and editing.
!!!OTL: Always On My Mind
!!!RDF**chordsym: original McGill chord annotation + (implied pitch class set, with bass pitch in first position)
!!!RDF**harmony: **recip + pitch class of root + harmonic quality
!!!RDF**leadinstrument: original McGill primary instrumentation annotation
!!!RDF**phrase: newline = linebreak in original McGill transcription
!!!RDF**timestamp: McGill audio timestamp in seconds
!!!RDT: 2017/01/12/
!!!SampleActualRank: 11
!!!SampleID#: 0184
!!!SampleTargetRank: 12
